X: 1
T: Broderick Brothers' Bike, The
M: 3/4
L: 1/8
R: mazurka
K: Gmaj
|: d e>d |\ 
d>g g>d e>d | (3Bcd B>^A B>=A | G2 G>D G>B | A3 d e>d |
d>g g>d e>d | (3Bcd B>^A B>=A | G2 G>D A<d | G3 :|
K: Gmin
B A>G |\ 
A2 A>D c>A | B>A G>B A>B | A2 A>c B>A | B3 A G>D |
A>d ^c>d =c>A | B>c de d>G | ^F>A d>c (3BAF | G3 B A>G |
A2 A>D c>A | B>A G>B A>B | c2 c>F f>e | e2 d>^c d>G |
d>^f a>e d>c | B>c d>e d>G | ^F>A d>c (3BAF | G2 G |]
